X: 2082
T: JAMES Mc NICOLL
C:
Q: "Strathspey."
R: Strathspey.
%R: strathspey
B: James Kerr "Merry Melodies" v.2 p.11 #82
Z: 2016 John Chambers <jc:trillian.mit.edu>
M: C
L: 1/16
%%slurgraces yes
%%graceslurs yes
K: C
(ued) |\
vc3vGuE3uc {AB}uc3ud {cd}ue3ud | c3GE3c Dd3 d3ue |\
c3GE3G c3de3c | f3dB3g ec3 c2 ::\
(uef) |\
vg3vcua3uc G3c E3a |
g3ca3c (Bd3) (def2) |\
[1 g3ca3c G3cE3c | A3FD3g ec3-c4 :|\
[2 g3ed3f e3cB3d | c3G E3g ec3 c2 |]
